X:1
T:Larry Bourne. FTB.123
L:1/8
Q:1/8=200
M:4/4
I:linebreak $
K:G
V:1 treble 
V:1
 G2 BG BddB | c2 ec egge | G2 BG Bddg | edcB A2 G2 :| g2 bg agfd | edef gdBd |$ g2 bg agfd | %7
 edef g2 ga | bagf gfed | edef gdBd | cBcd efge | dBGB A2 G2 |] %12
